DVA
CUT[Muede kehrt ein Wandersmann zurueck
    nach der Heimat seiner Liebe Glueck]
REG[Europa, Mitteleuropa, Deutschland, Schlesien, Hirschberg]
KEY[D1009  08  G 4/4]
MEL[-53  3_.21-712  -5__0_
    -5-7  2_.1-7243  1__0_
    12  3_.54321  4__0
    432  -5_.1-7243  1__0_ //] >>
FCT[Liebes - Lied]
CMT[DVA-Signatur A 51 775]
